www/assets/icons/list_alt.svg

<svg xmlns="http://www.w3.org/2000/svg" width="24" height="24" viewBox="0 0 24 24" fill='currentColor'><path d="M19 5v14H5V5zm1.1-2H3.9c-.5 0-.9.4-.9.9v16.2c0 .4.4.9.9.9h16.2c.4 0 .9-.5.9-.9V3.9c0-.5-.5-.9-.9-.9M11 7h6v2h-6zm0 4h6v2h-6zm0 4h6v2h-6zM7 7h2v2H7zm0 4h2v2H7zm0 4h2v2H7z"/></svg>

<svg width="24" height="24" viewBox="0 0 24 24" xmlns="http://www.w3.org/2000/svg" fill='currentColor'><path d="M19 5V19H5V5H19ZM20.1 3H3.9C3.4 3 3 3.4 3 3.9V20.1C3 20.5 3.4 21 3.9 21H20.1C20.5 21 21 20.5 21 20.1V3.9C21 3.4 20.5 3 20.1 3ZM11 7H17V9H11V7ZM11 11H17V13H11V11ZM11 15H17V17H11V15ZM7 7H9V9H7V7ZM7 11H9V13H7V11ZM7 15H9V17H7V15Z"/></svg>
